X:1
T:Title
%%score { ( 1 3 ) | ( 2 4 ) }
L:1/8
M:6/8
K:Eb
V:1 treble nm="Grand Piano"
V:3 treble 
V:2 bass 
V:4 bass 
V:1
 z3 z2[Q:1/4=90] B | BGc B2 G | [B,DG]2 [A,DF] [G,E]2 [G,E] | [B,DF]2 [B,DF] [G,E]2 [B,DF] | %4
[M:5/8] G-G- G3 |[M:1/8] B |[M:3/4] BG c B2 G | [B,DG]2 [A,DF] [G,E]2 [G,E] | %8
 [A,CF]2 [CEA] [B,DG]2 [A,DF] |[M:5/8] [G,E]-[G,E]- [G,E]3 |[M:1/8] [EGB] |[M:3/4] [GB]4 z2 | %12
 [Ge]4 z2 | [Ac]4 z2 |[M:5/8] [GB]-[GB]- [GB]3 |[M:1/8] e |[M:3/4] [Ge]4 z2 | B4 z2 | [DF]4 z2 | %19
[M:5/8] E-E- E3 |] %20
V:2
 z3 z2 [E,G,E] | [E,G,E][E,B,E][E,A,D] [E,G,E]2 [E,B,E] | B,,2 B,, E,2 E, | B,,2 B,, C,2 B,, | %4
[M:5/8] [E,B,E]-[E,B,E]- [E,B,E]3 |[M:1/8] [E,G,E] | %6
[M:3/4] [E,G,E][E,B,E] [E,A,E] [E,G,E]2 [E,B,E] | B,,2 B,, C,2 C, | A,,2 F,, B,,2 B,, | %9
[M:5/8] E,-E,- E,3 |[M:1/8] E, |[M:3/4] E,E, E,E,[K:treble] EG | [E,B,]E, E,E,[K:treble] BB | %13
 A,A, A,A, FA |[M:5/8][K:bass] E,E,E, E, z |[M:1/8] G |[M:3/4] [E,B,]E, E,E,[K:treble] GE | %17
 E-[E,E-] [E,E-][E,E] DE | B,,B,, B,,B,, B,,B,, |[M:5/8] z2 A, G,2 |] %20
V:3
 x6 | x6 | x6 | x6 |[M:5/8] x5 |[M:1/8] x |[M:3/4] x6 | x6 | x6 |[M:5/8] x5 |[M:1/8] x | %11
[M:3/4] EE EE GB | z B, B,B, dd | EE EE Ac |[M:5/8] EEE E z |[M:1/8] x |[M:3/4] z B, B,B, BG | %17
 z G, G,G, AG | B,B, B,B, [B,DG][A,DF] |[M:5/8] G,2 C B,2 |] %20
V:4
 x6 | x6 | x6 | x6 |[M:5/8] x5 |[M:1/8] x |[M:3/4] x6 | x6 | x6 |[M:5/8] x5 |[M:1/8] x | %11
[M:3/4] x4[K:treble] x2 | x4[K:treble] x2 | x6 |[M:5/8][K:bass] x5 |[M:1/8] x | %16
[M:3/4] x4[K:treble] x2 | .[E,G,]2 z2 z2 | x6 |[M:5/8] E,-E,- E,3 |] %20

